src/images_karasa_jaga_svg/cmd/32/flowchartshapes.flowchart-delay.svg

<svg height="32" viewBox="0 0 32 32" width="32" xmlns="http://www.w3.org/2000/svg" xmlns:xlink="http://www.w3.org/1999/xlink"><linearGradient id="a" gradientTransform="matrix(0 -.40973888 .24845378 0 20.258463 81.861382)" gradientUnits="userSpaceOnUse" x1="-112.60493" x2="202.69926" y1="240.45332" y2="240.45332"><stop offset="0" stop-color="#fff"/><stop offset=".30376765" stop-color="#fff"/><stop offset=".69874382" stop-color="#f1f1f1"/><stop offset=".91130292" stop-color="#eaeaea"/><stop offset="1" stop-color="#dfdfdf"/></linearGradient><linearGradient id="b" gradientTransform="matrix(0 -.40973888 .24845378 0 20.258463 81.861382)" gradientUnits="userSpaceOnUse" x1="-239.63541" x2="319.21747" y1="260.29001" y2="261.44675"><stop offset="0" stop-color="#7c9fcf"/><stop offset=".5" stop-color="#7c9ece"/><stop offset="1" stop-color="#7b9dcf"/></linearGradient><g fill-rule="evenodd" transform="scale(.25)"><path d="m8 12.019531a3.981008 3.981008 0 0 0 -3.9804688 3.980469v96a3.981008 3.981008 0 0 0 3.9804688 3.98047h65.525391.08789a3.981008 3.981008 0 0 0 .535157-.041c28.539182-.30859 49.979452-23.451582 49.980472-51.93947-.00103-28.490836-21.44552-51.635211-49.988285-51.939453a3.981008 3.981008 0 0 0 -.53125-.04102z" fill="url(#b)"/><path d="m8 15.999998v96.000002h65.613281v-.0137c26.695549-.01818 46.534209-21.290749 46.535159-47.9863-.00096-26.697073-19.842-47.970275-46.539065-47.98633v-.01367h-65.609375zm65.580078.01172c-47.858073 74.907552-23.929036 37.453776 0 0zm0 95.976562c-47.858073 10.42578-23.929036 5.21289 0 0z" fill="url(#a)"/></g></svg>

<?xml version="1.0" encoding="UTF-8" standalone="no"?>
<!-- Created with Inkscape (http://www.inkscape.org/) -->

<svg
   xmlns:dc="http://purl.org/dc/elements/1.1/"
   xmlns:cc="http://creativecommons.org/ns#"
   xmlns:rdf="http://www.w3.org/1999/02/22-rdf-syntax-ns#"
   xmlns:svg="http://www.w3.org/2000/svg"
   xmlns="http://www.w3.org/2000/svg"
   xmlns:xlink="http://www.w3.org/1999/xlink"
   xmlns:sodipodi="http://sodipodi.sourceforge.net/DTD/sodipodi-0.dtd"
   xmlns:inkscape="http://www.inkscape.org/namespaces/inkscape"
   version="1.1"
   id="svg2"
   width="128"
   height="128"
   viewBox="0 0 128 128"
   sodipodi:docname="flowchartshapes.flowchart-delay.svg"
   inkscape:export-filename="/home/rizmut/Dokumen/Rizmut/Github/libreoffice-style-karasa-jaga/build/images_karasa_jaga/cmd/32/flowchartshapes.flowchart-delay.png"
   inkscape:export-xdpi="24"
   inkscape:export-ydpi="24"
   inkscape:version="0.92.3 (unknown)">
  <metadata
     id="metadata8">
    <rdf:RDF>
      <cc:Work
         rdf:about="">
        <dc:format>image/svg+xml</dc:format>
        <dc:type
           rdf:resource="http://purl.org/dc/dcmitype/StillImage" />
        <dc:title />
      </cc:Work>
    </rdf:RDF>
  </metadata>
  <defs
     id="defs6">
    <inkscape:perspective
       id="perspective27"
       inkscape:persp3d-origin="64 : 42.666667 : 1"
       inkscape:vp_z="128 : 64 : 1"
       inkscape:vp_y="0 : 1000 : 0"
       inkscape:vp_x="0 : 64 : 1"
       sodipodi:type="inkscape:persp3d" />
    <linearGradient
       id="linearGradient3369">
      <stop
         id="stop3372"
         offset="0"
         style="stop-color:#ffffff;stop-opacity:1;" />
      <stop
         style="stop-color:#ffffff;stop-opacity:1;"
         offset="0.30376765"
         id="stop3374" />
      <stop
         style="stop-color:#f1f1f1;stop-opacity:1;"
         offset="0.69874382"
         id="stop3376" />
      <stop
         id="stop3378"
         offset="0.91130292"
         style="stop-color:#eaeaea;stop-opacity:1;" />
      <stop
         id="stop3384"
         offset="1"
         style="stop-color:#dfdfdf;stop-opacity:1;" />
    </linearGradient>
    <linearGradient
       id="linearGradient7422">
      <stop
         style="stop-color:#7c9fcf;stop-opacity:1"
         offset="0"
         id="stop7424" />
      <stop
         id="stop5348"
         offset="0.5"
         style="stop-color:#7c9ece;stop-opacity:1" />
      <stop
         id="stop7426"
         offset="1"
         style="stop-color:#7b9dcf;stop-opacity:1" />
    </linearGradient>
    <linearGradient
       y2="388.95178"
       x2="399.77466"
       y1="1324.7792"
       x1="405.94968"
       gradientTransform="matrix(0.08097132,0,0,0.07807154,182.74486,-6.9021226)"
       gradientUnits="userSpaceOnUse"
       id="linearGradient2330"
       xlink:href="#linearGradient7422"
       inkscape:collect="always" />
    <linearGradient
       y2="240.45332"
       x2="202.69926"
       y1="240.45332"
       x1="-112.60493"
       gradientTransform="matrix(0,-0.40973888,0.24845378,0,20.258463,81.861382)"
       gradientUnits="userSpaceOnUse"
       id="linearGradient2360"
       xlink:href="#linearGradient3369"
       inkscape:collect="always" />
    <linearGradient
       inkscape:collect="always"
       xlink:href="#linearGradient7422"
       id="linearGradient832"
       gradientUnits="userSpaceOnUse"
       gradientTransform="matrix(0,-0.40973888,0.24845378,0,20.258463,81.861382)"
       x1="-239.63541"
       y1="260.29001"
       x2="319.21747"
       y2="261.44675" />
  </defs>
  <sodipodi:namedview
     pagecolor="#ffffff"
     bordercolor="#666666"
     borderopacity="1"
     objecttolerance="10"
     gridtolerance="10"
     guidetolerance="10"
     inkscape:pageopacity="0"
     inkscape:pageshadow="2"
     inkscape:window-width="1364"
     inkscape:window-height="658"
     id="namedview4"
     showgrid="true"
     inkscape:snap-page="true"
     inkscape:snap-global="true"
     inkscape:zoom="1.4142136"
     inkscape:cx="156.71601"
     inkscape:cy="71.233706"
     inkscape:window-x="0"
     inkscape:window-y="30"
     inkscape:window-maximized="0"
     inkscape:current-layer="svg2"
     showguides="false">
    <inkscape:grid
       type="xygrid"
       id="grid837"
       spacingx="4"
       spacingy="4"
       empspacing="1" />
  </sodipodi:namedview>
  <path
     sodipodi:type="inkscape:offset"
     inkscape:radius="3.9806099"
     inkscape:original="M 8 16 L 8 112 L 73.525391 112 L 73.613281 112 L 73.613281 111.98633 C 100.30883 111.96815 120.14749 90.695551 120.14844 64 C 120.14748 37.302927 100.30644 16.029727 73.609375 16.013672 L 73.609375 16 L 8 16 z M 73.580078 16.011719 C 49.651042 53.465495 25.722005 90.919271 73.580078 16.011719 z "
     style="fill:url(#linearGradient832);fill-opacity:1;fill-rule:evenodd;stroke:none;stroke-width:4.47213125;stroke-linecap:round;stroke-linejoin:round;stroke-miterlimit:4;stroke-dasharray:none;stroke-opacity:1"
     id="path830"
     d="M 8,12.019531 A 3.981008,3.981008 0 0 0 4.0195312,16 v 96 A 3.981008,3.981008 0 0 0 8,115.98047 h 65.525391 0.08789 a 3.981008,3.981008 0 0 0 0.535157,-0.041 C 102.68762,115.63088 124.12789,92.487888 124.12891,64 124.12788,35.509164 102.68339,12.364789 74.140625,12.060547 a 3.981008,3.981008 0 0 0 -0.53125,-0.04102 z" />
  <path
     style="fill:url(#linearGradient2360);fill-opacity:1;fill-rule:evenodd;stroke:none;stroke-width:4.47213125;stroke-linecap:round;stroke-linejoin:round;stroke-miterlimit:4;stroke-dasharray:none;stroke-opacity:1"
     d="M 8,15.999998 V 112 h 65.613281 v -0.0137 C 100.30883,111.96812 120.14749,90.695551 120.14844,64 120.14748,37.302927 100.30644,16.029725 73.609375,16.01367 V 16 H 8 Z m 65.580078,0.01172 c -47.858073,74.907552 -23.929036,37.453776 0,0 z m 0,95.976562 c -47.858073,10.42578 -23.929036,5.21289 0,0 z"
     id="rect2326"
     inkscape:connector-curvature="0"
     sodipodi:nodetypes="ccccccccccccc" />
  <g
     transform="matrix(0,0.57912965,0.57912965,0,27.114229,-2.9133545)"
     inkscape:label="Livello 1"
     id="g1544" />
  <g
     transform="matrix(0,-0.57912965,0.57912965,0,27.114229,130.91165)"
     inkscape:label="Livello 1"
     id="g1599" />
</svg>
